src/actions/24/go-jump-declaration.svg

<svg xmlns="http://www.w3.org/2000/svg" viewBox="0 0 24 24">
  <defs id="defs3051">
    <style type="text/css" id="current-color-scheme">
      .ColorScheme-Text {
        color:#2e3440;
      }
      </style>
  </defs>
 <path style="fill:currentColor;fill-opacity:1;stroke:none" 
     d="M 4 4 L 4 20 L 5 20 L 5 12 L 10 12 L 10 13 L 15 13 L 15 6 L 10 6 L 10 5 L 5 5 L 5 4 L 4 4 z M 18 7 L 17 8 L 16 9 L 18 11 L 18 9.7148438 C 18.624415 10.657919 19 11.778652 19 13 C 19 16.324 16.324 19 13 19 L 13 20 C 16.878 20 20 16.878 20 13 C 20 11.090887 19.232299 9.3761254 18 8.1171875 L 18 7 z "
     class="ColorScheme-Text"
     />
</svg>

<svg viewBox="0 0 24 24" xmlns="http://www.w3.org/2000/svg">
 <defs>
  <style type="text/css">.ColorScheme-Text {
        color:#2e3440;
      }</style>
 </defs>
 <path class="ColorScheme-Text" d="m4 4v16h1v-8h5v1h5v-7h-5v-1h-5v-1h-1zm14 3-2 2 2 2v-1.2852c0.62442 0.94308 1 2.0638 1 3.2852 0 3.324-2.676 6-6 6v1c3.878 0 7-3.122 7-7 0-1.9091-0.7677-3.6239-2-4.8828v-1.1172z" fill="currentColor"/>
</svg>
